X:1
T:Title
%%score { ( 1 4 ) | ( 2 3 ) }
L:1/8
M:4/4
K:Ab
V:1 treble nm="Grand Piano"
V:4 treble 
V:2 bass 
V:3 bass 
V:1
 z4 z2[Q:1/4=100] [Ec]>B | A2 A2 AECE | A2 B2 [Ec]2 [C_GA]2 | [FA]3 [FB] [FA]2 [DF]2 | %4
 [CE]6 [CA]2 | A3 G G2 B2 | B3 A A2 c2 | [=DB]3 [DA] [DG]2 [DA]2 | B6 c2 | e2 e2 e2 cB | %10
 A2 F2 [CE]3 [CE] | [EA]2 B2 c e2 c |[M:7/8] A2 B2 [A,CA]3 |[M:1/8] E | %14
[M:4/4] A4[K:bass][K:treble] A4[K:bass][K:treble] | [FB][FA][FA][DF] [CE]3 [CA] | z4 B4 | %17
[M:7/8] z z z2 c3 |[M:1/8] c |[M:4/4] e4 e4 | [FB][FA][FA]F E2 c>d | e4 z4 |[M:3/4] [CEA]6 |] %23
V:2
 z4 z2 z z/ D/ | [A,C]2 [A,C]2 A,E,C,E, | [A,C]2 [E,G,E]2 [A,,A,]2 A,,2 | %3
 [D,D]3 [D,D] [D,D]2 [D,A,]2 | [A,,A,]6 [A,,A,]2 | [E,CE]3 [E,B,E] [E,B,E]2 [E,DE]2 | %6
 [A,DE]3 [A,CE] [A,CE]2 [A,CE]2 | [B,,F,]3 [B,,F,] [B,,B,]2 [B,,B,]2 | [E,G,D]6 [A,E]2 | %9
 [A,CE]2 [A,CE]2 [A,CE]2 ED | [F,A,C]2 [D,A,D]2 [A,,A,]3 [A,,A,] | z4 [A,E]4 | %12
[M:7/8] [E,A,C]2 [E,G,D]2 A,,3 |[M:1/8] C |[M:4/4] C4 C4 | [D,D][D,D][D,D][D,A,] [A,,A,]3 [A,,A,] | %16
 z4 E4 |[M:7/8] z z[K:treble] z2 A3 |[M:1/8] E |[M:4/4] E4[K:bass] E4 | z4 z2 [A,E]2 | E4 z4 | %22
[M:3/4] A,,6 |] %23
V:3
 z4 z2 A,2 | x8 | x8 | x8 | x8 | x8 | x8 | x8 | x8 | z4 z2 [E,G,]2 | x8 | %11
 [C,A,]2 [E,G,E]2 z C2 [A,E] |[M:7/8] x7 |[M:1/8] x |[M:4/4] z A,,A,,E z A,,A,,A,, | x8 | %16
 [E,CE]>[E,B,E] [E,B,E][E,CE] [E,D]E,E,[E,DE] | %17
[M:7/8] [A,DE]>[K:treble][A,CE][A,CE] [A,DE][A,E] A,A, |[M:1/8] x | %19
[M:4/4] z[K:bass] A,A,E z A,A,[A,CE] | [D,D][D,D][D,D][D,A,D] [A,C]2 z z/ B,/ | %21
 [E,C]>E, E,[E,A,] E,2 E,2 |[M:3/4] x6 |] %23
V:4
 x8 | x8 | x8 | x8 | x8 | x8 | x8 | x8 | x8 | x8 | x8 | x8 |[M:7/8] x7 |[M:1/8] x | %14
[M:4/4] z[K:bass] E,E,[K:treble]c z[K:bass] E,E,[K:treble][CEA] | x8 | A>G GA z DDB | %17
[M:7/8] B>AA B z EE |[M:1/8] x |[M:4/4] z CCc z CCA | x8 | z z/ C/ C[Fc] [CEA]2 [DEB]2 | %22
[M:3/4] x6 |] %23

